build/assets/images/proyectos/logos/fichas/logo-selfbank.svg

<svg width="200" height="69" viewBox="0 0 200 69" fill="none" xmlns="http://www.w3.org/2000/svg">
<g clip-path="url(#clip0)">
<path d="M12.8956 55.5315C12.9535 56.3873 12.8347 57.246 12.5465 58.054C12.2583 58.862 11.8069 59.602 11.2205 60.228C10.634 60.8541 9.92499 61.3528 9.13752 61.693C8.35006 62.0333 7.50099 62.2079 6.64316 62.2059C5.84038 62.2266 5.04232 62.0772 4.30144 61.7673C3.56057 61.4575 2.89367 60.9944 2.3446 60.4084V61.9715H0.781494V43.73H2.3446V51.0453C2.9009 50.418 3.58829 49.9206 4.35812 49.5884C5.12795 49.2561 5.9614 49.0972 6.79947 49.1227C7.63162 49.1054 8.45823 49.2618 9.22654 49.582C9.99484 49.9021 10.6879 50.3789 11.2616 50.982C11.8352 51.5851 12.2768 52.3011 12.5582 53.0845C12.8395 53.8678 12.9545 54.7012 12.8956 55.5315V55.5315ZM11.3325 55.5315C11.3799 54.8873 11.2937 54.2404 11.0793 53.6312C10.8649 53.0219 10.527 52.4635 10.0868 51.991C9.64652 51.5184 9.1134 51.1419 8.52083 50.8851C7.92825 50.6282 7.28901 50.4965 6.64316 50.4983C5.8028 50.4865 4.97223 50.6796 4.22326 51.0609C3.4743 51.4421 2.82949 52.0001 2.3446 52.6866V58.6108C2.84456 59.2945 3.502 59.8475 4.26118 60.223C5.02036 60.5985 5.85889 60.7854 6.70568 60.7679C7.36448 60.7714 8.01662 60.6361 8.61962 60.3707C9.22262 60.1054 9.76294 59.7159 10.2054 59.2278C10.6478 58.7396 10.9824 58.1637 11.1874 57.5376C11.3923 56.9115 11.4631 56.2493 11.395 55.594L11.3325 55.5315Z" fill="white"/>
<path d="M26.6198 49.3572L20.8832 63.2376C19.8828 65.6448 18.4135 66.9109 16.2877 66.9109C15.5612 66.9167 14.8418 66.7675 14.1775 66.4733V64.9101C14.8074 65.2309 15.5027 65.4021 16.2095 65.4103C16.8836 65.4501 17.5523 65.2707 18.1159 64.8987C18.6794 64.5268 19.1074 63.9824 19.3358 63.347L19.8828 61.9715L14.5214 49.2947H16.2564L20.6331 60.1114L24.9629 49.2947L26.6198 49.3572Z" fill="white"/>
<path d="M41.1567 62.4561C39.0334 62.4858 36.9719 61.7412 35.3576 60.3615V56.5944C37.003 58.1603 39.1541 59.0861 41.4224 59.2048C42.9856 59.2048 44.4392 58.5952 44.4392 57.0946C44.4392 55.594 42.7198 55.1564 40.9848 54.6562C38.1555 53.859 34.9824 52.8117 34.9824 49.0915C34.9824 45.3713 38.1086 43.605 41.5006 43.605C43.2025 43.6041 44.8704 44.0807 46.315 44.9805V48.4037C44.8748 47.4458 43.1978 46.9049 41.4693 46.8406C39.7186 46.8406 38.3431 47.5909 38.3431 49.0446C38.3431 50.4983 40 50.9985 42.2353 51.6237C44.7831 52.3115 47.753 53.1868 47.753 56.8289C47.753 60.4709 44.5487 62.4561 41.1567 62.4561Z" fill="white"/>
<path d="M50.3323 44.8553C50.3167 44.4356 50.4267 44.0208 50.6483 43.6641C50.8698 43.3073 51.1927 43.0247 51.5758 42.8525C51.9588 42.6803 52.3845 42.6264 52.7984 42.6975C53.2123 42.7686 53.5955 42.9616 53.8991 43.2518C54.2027 43.542 54.4128 43.9161 54.5025 44.3264C54.5922 44.7367 54.5575 45.1644 54.4027 45.5548C54.248 45.9452 53.9803 46.2805 53.6338 46.5179C53.2874 46.7553 52.878 46.8839 52.4581 46.8873C52.1818 46.907 51.9045 46.8687 51.6439 46.7749C51.3833 46.681 51.1452 46.5336 50.945 46.3422C50.7448 46.1508 50.5869 45.9197 50.4813 45.6636C50.3758 45.4075 50.325 45.1322 50.3323 44.8553ZM50.8012 61.9714V48.8881H53.9274V61.9714H50.8012Z" fill="white"/>
<path d="M69.9649 54.0151V61.9714H66.8387V54.2965C66.8435 53.9162 66.7672 53.5393 66.6147 53.1909C66.4623 52.8426 66.2372 52.5307 65.9546 52.2762C65.6721 52.0218 65.3384 51.8305 64.976 51.7153C64.6136 51.6 64.2308 51.5634 63.8531 51.6079C63.3155 51.5856 62.7805 51.6933 62.2934 51.9219C61.8063 52.1505 61.3816 52.4932 61.0552 52.9209V61.9714H57.929V48.8881H60.9458V50.0917C61.4318 49.609 62.0107 49.2299 62.6474 48.9773C63.2842 48.7248 63.9656 48.604 64.6503 48.6224C65.3672 48.5752 66.0859 48.6829 66.7574 48.9383C67.4289 49.1938 68.0375 49.5908 68.5417 50.1025C69.046 50.6142 69.4342 51.2286 69.6797 51.9037C69.9253 52.5789 70.0226 53.299 69.9649 54.0151V54.0151Z" fill="white"/>
<path d="M86.3462 51.8425H83.345C83.663 52.1108 83.9135 52.45 84.0764 52.8328C84.2393 53.2156 84.31 53.6313 84.2829 54.0465C84.2829 57.1727 81.4068 58.048 79.4685 58.4388C77.5303 58.8296 76.5611 58.7514 76.5611 59.5174C76.5611 60.2833 77.6709 60.3927 78.515 60.4083H79.8437C81.5944 60.4083 85.2833 60.6272 85.2833 63.8784C85.2833 66.864 82.1571 68.1145 78.5932 68.1145C75.0293 68.1145 72.5283 67.0047 72.5283 64.5975C72.5283 63.1281 73.5287 61.9558 75.5295 61.565C75.0558 61.4634 74.626 61.2156 74.3007 60.8566C73.9754 60.4976 73.771 60.0456 73.7163 59.5642C73.7163 58.6264 74.3572 58.0011 75.2794 57.751C74.6371 57.3351 74.1147 56.7587 73.7637 56.0787C73.4128 55.3988 73.2456 54.639 73.2786 53.8745C73.2786 50.7483 75.7171 48.8413 79.2184 48.8413H86.2993L86.3462 51.8425ZM75.4044 64.1911C75.4044 65.3321 76.8112 65.7542 78.7339 65.7542C80.6565 65.7542 82.2509 65.4259 82.2509 64.1911C82.2509 62.9562 80.891 62.9562 78.8433 62.9562C76.7956 62.9562 75.4357 62.9718 75.4357 64.2536L75.4044 64.1911ZM81.3286 53.9683C81.2784 53.3291 80.9891 52.7322 80.5183 52.2969C80.0474 51.8616 79.4298 51.6199 78.7886 51.6199C78.1474 51.6199 77.5297 51.8616 77.0589 52.2969C76.5881 52.7322 76.2987 53.3291 76.2485 53.9683C76.2987 54.6076 76.5881 55.2044 77.0589 55.6397C77.5297 56.075 78.1474 56.3168 78.7886 56.3168C79.4298 56.3168 80.0474 56.075 80.5183 55.6397C80.9891 55.2044 81.2784 54.6076 81.3286 53.9683Z" fill="white"/>
<path d="M100.352 48.8882V61.9714H97.3818V60.7678C96.3533 61.7268 94.9892 62.2432 93.5835 62.2059C92.8736 62.2335 92.1658 62.1119 91.5058 61.849C90.8459 61.586 90.2484 61.1876 89.7519 60.6794C89.2555 60.1712 88.8712 59.5645 88.6238 58.8986C88.3765 58.2326 88.2715 57.5222 88.3158 56.8132V48.8882H91.442V56.5631C91.4517 56.9361 91.5367 57.3033 91.692 57.6427C91.8473 57.982 92.0696 58.2864 92.3456 58.5376C92.6216 58.7887 92.9455 58.9815 93.298 59.1042C93.6504 59.2269 94.024 59.277 94.3963 59.2516C94.9283 59.2624 95.4561 59.1559 95.9424 58.9398C96.4286 58.7237 96.8614 58.4032 97.2099 58.0011V48.8882H100.352Z" fill="white"/>
<path d="M104.213 61.9715V43.73H107.339V61.9715H104.213Z" fill="white"/>
<path d="M121.282 61.9714H118.281V60.2051C117.819 60.8497 117.205 61.3698 116.493 61.7189C115.781 62.0681 114.993 62.2354 114.201 62.2058C113.699 62.2711 113.189 62.2248 112.707 62.0703C112.226 61.9158 111.784 61.6569 111.414 61.3121C111.043 60.9672 110.754 60.5449 110.566 60.0752C110.377 59.6056 110.295 59.1002 110.324 58.5951C110.324 55.25 113.654 54.7967 116.374 54.0933C117.327 53.8588 118.156 53.6087 118.156 52.7178C118.156 51.8268 117.03 51.3735 115.842 51.3735C114.13 51.3886 112.475 51.9899 111.153 53.0773V50.1855C112.598 49.1535 114.333 48.6063 116.108 48.6224C119.328 48.6224 121.297 50.1855 121.297 52.8741L121.282 61.9714ZM118.156 55.8752C117.645 56.0734 117.123 56.2405 116.593 56.3754C114.686 56.8913 113.466 57.1726 113.466 58.4544C113.466 59.2047 113.904 59.6423 115.029 59.6423C115.427 59.6747 115.827 59.6244 116.204 59.4946C116.582 59.3648 116.928 59.1584 117.222 58.8882C117.515 58.6181 117.75 58.2901 117.911 57.9249C118.071 57.5597 118.155 57.1652 118.156 56.7662V55.8752Z" fill="white"/>
<path d="M133.068 48.9351V51.9363C132.557 51.8029 132.032 51.7346 131.504 51.7331C130.877 51.7021 130.253 51.8289 129.687 52.102C129.122 52.3751 128.634 52.7857 128.269 53.2962V61.9402H125.143V48.8882H128.019V50.4513C128.416 49.8837 128.952 49.4276 129.576 49.1265C130.2 48.8255 130.891 48.6896 131.583 48.7319C132.083 48.7504 132.581 48.8185 133.068 48.9351Z" fill="white"/>
<path d="M154.779 56.7349C154.779 59.8611 152.216 61.9713 148.699 61.9713H141.727V44.0111H148.527C149.164 43.9489 149.807 44.0228 150.413 44.2277C151.019 44.4327 151.575 44.7642 152.043 45.2002C152.512 45.6361 152.882 46.1667 153.13 46.7567C153.378 47.3466 153.498 47.9826 153.482 48.6223C153.525 49.3467 153.376 50.0695 153.049 50.7174C152.722 51.3653 152.23 51.9152 151.622 52.3113C152.558 52.6038 153.373 53.1943 153.943 53.9928C154.513 54.7913 154.807 55.7542 154.779 56.7349V56.7349ZM145.025 51.1233H147.714C149.121 51.1233 150.106 50.3574 150.106 49.0913C150.106 47.8251 149.23 47.1686 147.839 47.1686H145.025V51.1233ZM151.481 56.4379C151.481 55.078 150.34 54.2495 148.73 54.2495H145.025V58.9388H148.496C150.293 58.8138 151.481 57.8134 151.481 56.4379Z" fill="white"/>
<path d="M167.925 61.9715H164.908V60.2052C164.446 60.8498 163.832 61.3699 163.12 61.719C162.408 62.0682 161.621 62.2355 160.828 62.2059C160.327 62.2712 159.817 62.2249 159.335 62.0704C158.853 61.916 158.411 61.657 158.041 61.3122C157.671 60.9673 157.381 60.545 157.193 60.0753C157.005 59.6057 156.922 59.1003 156.952 58.5952C156.952 55.2501 160.297 54.7968 163.017 54.0934C163.955 53.8589 164.783 53.6088 164.783 52.7179C164.783 51.8269 163.658 51.3736 162.47 51.3736C160.757 51.3823 159.099 51.9844 157.78 53.0774V50.1856C159.224 49.1517 160.96 48.6042 162.735 48.6225C165.862 48.6225 167.909 50.1856 167.909 52.8742L167.925 61.9715ZM164.799 55.8753C164.288 56.0735 163.766 56.2406 163.236 56.3755C161.329 56.8914 160.109 57.1727 160.109 58.4545C160.109 59.2048 160.547 59.6424 161.672 59.6424C162.07 59.6748 162.47 59.6245 162.848 59.4947C163.225 59.3649 163.571 59.1585 163.865 58.8883C164.158 58.6182 164.393 58.2902 164.554 57.925C164.714 57.5598 164.798 57.1653 164.799 56.7663V55.8753Z" fill="white"/>
<path d="M183.744 54.0152V61.9715H180.617V54.2966C180.622 53.9178 180.546 53.5424 180.395 53.1952C180.243 52.848 180.019 52.537 179.739 52.2828C179.458 52.0286 179.126 51.837 178.766 51.7206C178.405 51.6043 178.024 51.5659 177.648 51.608C177.11 51.5857 176.575 51.6934 176.088 51.922C175.601 52.1506 175.176 52.4933 174.85 52.921V61.9715H171.723V48.8882H174.725V50.0918C175.219 49.6041 175.809 49.2234 176.457 48.9733C177.105 48.7232 177.798 48.6091 178.492 48.6381C179.202 48.6005 179.912 48.7148 180.575 48.9734C181.238 49.2321 181.838 49.6291 182.335 50.138C182.832 50.6469 183.215 51.256 183.458 51.9246C183.7 52.5932 183.798 53.3059 183.744 54.0152V54.0152Z" fill="white"/>
<path d="M193.763 55.3283L200.016 61.9715H195.905L190.637 56.2818V61.9715H187.511V43.73H190.637V54.3591L195.717 48.8882H199.797L193.763 55.3283Z" fill="white"/>
<path d="M11.5045 35.6487C7.57309 35.6819 3.76314 34.2879 0.781531 31.7253V24.707C3.83401 27.6282 7.83251 29.3584 12.0516 29.5839C14.9589 29.5839 17.6788 28.4272 17.6788 25.6604C17.6788 22.8937 14.5525 22.034 11.2387 21.1274C5.98669 19.6425 0.0625 17.6886 0.0625 10.764C0.0625 3.83942 5.84601 0.54126 12.1922 0.54126C15.3453 0.548012 18.4329 1.44178 21.102 3.12039V9.54478C18.4161 7.77747 15.296 6.78251 12.0828 6.66865C8.83155 6.66865 6.25242 8.05982 6.25242 10.7796C6.25242 13.7964 9.37864 14.4061 13.5209 15.5628C18.2102 16.8445 23.7749 18.4701 23.7749 25.254C23.7749 32.2568 17.71 35.6487 11.5045 35.6487Z" fill="white"/>
<path d="M50.3789 24.7538H33.7162C33.9037 27.9582 37.155 30.0997 41.1097 30.0997C44.2032 29.98 47.1931 28.9526 49.7068 27.1454V32.3974C46.9421 34.2678 43.6653 35.2344 40.3281 35.1641C32.747 35.1641 27.8232 30.0997 27.8232 22.4717C27.8232 14.8437 32.7314 9.9668 39.656 9.9668C46.3461 9.9668 50.3633 14.5467 50.3633 21.9559L50.3789 24.7538ZM33.7631 20.3615H44.7048C44.7663 19.6786 44.6802 18.9904 44.4524 18.3437C44.2247 17.697 43.8605 17.1068 43.3846 16.6131C42.9088 16.1195 42.3323 15.7339 41.6944 15.4826C41.0565 15.2312 40.3719 15.12 39.6872 15.1563C38.2117 15.0621 36.759 15.5573 35.6482 16.5332C34.5375 17.5092 33.8595 18.886 33.7631 20.3615V20.3615Z" fill="white"/>
<path d="M55.8655 34.742V0.79126H61.7428V34.742H55.8655Z" fill="white"/>
<path d="M85.1895 6.27778C83.9089 5.61142 82.4906 5.25284 81.0472 5.23049C78.5619 5.23049 76.7018 6.46535 76.7018 9.13827V10.3888H84.0484V15.8753H76.7018V34.742H70.8088V15.8753H65.7913V10.3888H70.8088V9.04448C70.8088 3.29224 75.2012 0.166016 80.2188 0.166016C81.9351 0.172886 83.6338 0.512625 85.2207 1.16641L85.1895 6.27778Z" fill="white"/>
<path d="M114.06 24.9883C114.06 30.678 109.371 34.7421 102.743 34.7421H89.7695V1.30713H102.384C107.777 1.30713 111.606 4.5584 111.606 9.85734C111.689 11.2049 111.414 12.5504 110.81 13.7579C110.206 14.9655 109.295 15.9924 108.167 16.735C109.919 17.2729 111.446 18.3725 112.511 19.8641C113.576 21.3557 114.12 23.1564 114.06 24.9883ZM95.9282 14.531H100.93C103.556 14.531 105.369 13.1086 105.369 10.7639C105.369 8.41928 103.806 7.18443 101.18 7.18443H95.9282V14.531ZM107.902 24.2849C107.902 21.7526 105.807 20.2208 102.79 20.2208H95.9282V28.8648H102.384C105.713 28.8648 107.902 27.0047 107.902 24.2849Z" fill="white"/>
<path d="M138.507 34.742H132.927V31.4283C132.066 32.6272 130.922 33.5944 129.596 34.2435C128.271 34.8927 126.805 35.2036 125.33 35.1485C120.563 35.1485 118.124 32.3817 118.124 28.4114C118.124 22.159 124.377 21.3462 129.394 20.0644C131.161 19.6268 132.692 19.1578 132.692 17.4853C132.692 15.5314 130.582 15 128.394 15C125.209 15.0087 122.124 16.1125 119.656 18.1262V12.8741C122.331 10.9296 125.556 9.88923 128.863 9.90421C134.834 9.90421 138.507 12.8741 138.507 17.8292V34.742ZM132.646 23.3782C131.708 23.7557 130.747 24.0742 129.769 24.3317C126.237 25.2852 123.908 25.8011 123.908 28.1926C123.908 29.5838 124.705 30.3966 126.815 30.3966C127.555 30.4569 128.3 30.3636 129.002 30.1227C129.705 29.8818 130.35 29.4984 130.897 28.9965C131.445 28.4946 131.883 27.8851 132.183 27.2061C132.484 26.5272 132.642 25.7934 132.646 25.0508V23.3782Z" fill="white"/>
<path d="M167.925 19.9394V34.7421H162.048V20.4865C162.048 17.3603 159.672 15.4845 156.514 15.4845C155.516 15.4432 154.523 15.6416 153.617 16.0632C152.712 16.4847 151.92 17.1171 151.309 17.9074V34.7421H145.432V10.3888H151.028V12.6709C151.946 11.7575 153.044 11.0442 154.252 10.5761C155.46 10.108 156.752 9.89518 158.046 9.95114C163.533 9.90424 167.925 13.2962 167.925 19.9394Z" fill="white"/>
<path d="M186.542 22.3622L198.14 34.742H190.512L180.711 24.1285V34.742H174.85V0.79126H180.711V20.4865L190.09 10.3262H197.734L186.542 22.3622Z" fill="white"/>
</g>
<defs>
<clipPath id="clip0">
<rect width="200" height="67.9953" fill="white" transform="translate(0 0.166016)"/>
</clipPath>
</defs>
</svg>

<svg width="200" height="69" fill="none" xmlns="http://www.w3.org/2000/svg"><g clip-path="url(#clip0)" fill="#fff"><path d="M12.896 55.532a6.252 6.252 0 01-6.253 6.674 5.688 5.688 0 01-4.298-1.798v1.563H.78V43.73h1.564v7.315a5.72 5.72 0 014.454-1.922 5.986 5.986 0 016.097 6.409zm-1.564 0a4.688 4.688 0 00-4.689-5.034 5.174 5.174 0 00-4.298 2.189v5.924a5.267 5.267 0 004.36 2.157 4.69 4.69 0 004.69-5.174l-.063-.063zm15.288-6.175l-5.737 13.88c-1 2.408-2.47 3.674-4.595 3.674a5.11 5.11 0 01-2.11-.438V64.91c.63.32 1.325.492 2.031.5a3.126 3.126 0 003.127-2.063l.547-1.376-5.362-12.676h1.735l4.377 10.816 4.33-10.816 1.657.062zm14.537 13.099a8.738 8.738 0 01-5.8-2.095v-3.767a9.519 9.519 0 006.065 2.61c1.564 0 3.017-.609 3.017-2.11 0-1.5-1.72-1.938-3.454-2.438-2.83-.797-6.003-1.844-6.003-5.564 0-3.72 3.127-5.487 6.519-5.487a9.1 9.1 0 014.814 1.376v3.423a9.38 9.38 0 00-4.846-1.563c-1.75 0-3.126.75-3.126 2.204 0 1.453 1.657 1.953 3.892 2.579 2.548.688 5.518 1.563 5.518 5.205 0 3.642-3.204 5.627-6.596 5.627zm9.175-17.601a2.109 2.109 0 013.567-1.603 2.11 2.11 0 01-1.44 3.635 1.987 1.987 0 01-2.127-2.032zm.47 17.116V48.888h3.125v13.083h-3.126zm19.163-7.956v7.956h-3.126v-7.674a2.673 2.673 0 00-2.986-2.69 3.345 3.345 0 00-2.798 1.314v9.05H57.93V48.888h3.017v1.204a5.065 5.065 0 013.704-1.47 5.003 5.003 0 015.315 5.393zm16.381-2.172h-3.001a2.657 2.657 0 01.938 2.203c0 3.127-2.876 4.002-4.814 4.393-1.939.39-2.908.312-2.908 1.078s1.11.876 1.954.891h1.329c1.75 0 5.44.22 5.44 3.47 0 2.986-3.127 4.237-6.69 4.237-3.565 0-6.066-1.11-6.066-3.517 0-1.47 1-2.642 3.001-3.033a2.313 2.313 0 01-1.813-2c0-.939.641-1.564 1.563-1.814a4.392 4.392 0 01-2-3.877c0-3.126 2.438-5.033 5.94-5.033h7.08l.047 3.002zM75.404 64.19c0 1.141 1.407 1.563 3.33 1.563 1.922 0 3.517-.328 3.517-1.563 0-1.235-1.36-1.235-3.408-1.235-2.047 0-3.407.016-3.407 1.298l-.032-.063zm5.925-10.223a2.548 2.548 0 00-5.08 0 2.548 2.548 0 005.08 0zm19.023-5.079v13.083h-2.97v-1.203a5.361 5.361 0 01-3.799 1.438 5.081 5.081 0 01-5.267-5.393v-7.925h3.126v7.675a2.767 2.767 0 002.954 2.689 3.626 3.626 0 002.814-1.25v-9.114h3.142zm3.861 13.083V43.73h3.126v18.242h-3.126zm17.069 0h-3.001v-1.766a4.8 4.8 0 01-4.08 2 3.44 3.44 0 01-3.877-3.61c0-3.345 3.33-3.798 6.05-4.502.953-.234 1.782-.484 1.782-1.375s-1.126-1.345-2.314-1.345a7.485 7.485 0 00-4.689 1.704v-2.892a8.395 8.395 0 014.955-1.563c3.22 0 5.189 1.563 5.189 4.252l-.015 9.097zm-3.126-6.096c-.511.198-1.033.365-1.563.5-1.907.516-3.127.798-3.127 2.08 0 .75.438 1.187 1.563 1.187a2.889 2.889 0 002.882-1.717c.16-.365.244-.76.245-1.159v-.89zm14.912-6.94v3.001a6.26 6.26 0 00-1.564-.203 3.753 3.753 0 00-3.235 1.563v8.644h-3.126V48.888h2.876v1.563a4.045 4.045 0 013.564-1.72c.5.02.998.087 1.485.204zm21.711 7.8c0 3.126-2.563 5.236-6.08 5.236h-6.972v-17.96h6.8a4.518 4.518 0 014.955 4.611 4.109 4.109 0 01-1.86 3.69 4.502 4.502 0 013.157 4.423zm-9.754-5.612h2.689c1.407 0 2.392-.766 2.392-2.032s-.876-1.922-2.267-1.922h-2.814v3.954zm6.456 5.315c0-1.36-1.141-2.189-2.751-2.189h-3.705v4.69h3.471c1.797-.125 2.985-1.126 2.985-2.501zm16.444 5.533h-3.017v-1.766a4.8 4.8 0 01-4.08 2 3.437 3.437 0 01-3.876-3.61c0-3.345 3.345-3.798 6.065-4.502.938-.234 1.766-.484 1.766-1.375s-1.125-1.344-2.313-1.344a7.41 7.41 0 00-4.69 1.703v-2.891a8.365 8.365 0 014.955-1.563c3.127 0 5.174 1.563 5.174 4.251l.016 9.097zm-3.126-6.096c-.511.199-1.033.366-1.563.5-1.907.516-3.127.798-3.127 2.08 0 .75.438 1.187 1.563 1.187a2.896 2.896 0 002.882-1.717c.16-.365.244-.76.245-1.159v-.89zm18.945-1.86v7.956h-3.127v-7.674a2.674 2.674 0 00-1.851-2.576 2.675 2.675 0 00-1.118-.113 3.345 3.345 0 00-2.798 1.313v9.05h-3.127V48.889h3.002v1.204a5.057 5.057 0 013.767-1.454 5.004 5.004 0 015.252 5.377zm10.019 1.313l6.253 6.643h-4.111l-5.268-5.69v5.69h-3.126V43.73h3.126v10.63l5.08-5.472h4.08l-6.034 6.44zM11.505 35.649A16.24 16.24 0 01.781 31.725v-7.018a17.664 17.664 0 0011.27 4.877c2.907 0 5.627-1.157 5.627-3.924 0-2.766-3.126-3.626-6.44-4.533C5.987 19.642.062 17.69.062 10.764.063 3.839 5.846.541 12.193.541c3.153.007 6.24.9 8.91 2.58v6.424a17.538 17.538 0 00-9.02-2.876c-3.25 0-5.83 1.39-5.83 4.11 0 3.017 3.127 3.627 7.269 4.784 4.69 1.281 10.254 2.907 10.254 9.691 0 7.003-6.065 10.395-12.27 10.395zm38.874-10.895H33.716c.188 3.204 3.439 5.346 7.394 5.346a15.772 15.772 0 008.597-2.955v5.252a16.131 16.131 0 01-9.379 2.767c-7.581 0-12.505-5.064-12.505-12.692S32.731 9.967 39.656 9.967c6.69 0 10.707 4.58 10.707 11.989l.016 2.798zM33.763 20.36h10.942a4.782 4.782 0 00-5.018-5.205 5.58 5.58 0 00-5.924 5.205zm22.102 14.382V.792h5.878v33.95h-5.878zM85.19 6.278a9.285 9.285 0 00-4.143-1.048c-2.485 0-4.345 1.235-4.345 3.908v1.25h7.346v5.487h-7.346v18.867h-5.893V15.875H65.79V10.39h5.018V9.044c0-5.752 4.392-8.878 9.41-8.878a13.27 13.27 0 015.002 1l-.032 5.112zm28.87 18.71c0 5.69-4.689 9.754-11.317 9.754H89.769V1.307h12.615c5.393 0 9.222 3.251 9.222 8.55a7.666 7.666 0 01-3.439 6.878 8.349 8.349 0 015.893 8.253zM95.928 14.531h5.002c2.626 0 4.439-1.422 4.439-3.767 0-2.345-1.563-3.58-4.189-3.58h-5.252v7.347zm11.974 9.754c0-2.532-2.095-4.064-5.112-4.064h-6.862v8.644h6.456c3.329 0 5.518-1.86 5.518-4.58zm30.605 10.457h-5.58v-3.314a8.94 8.94 0 01-7.597 3.72c-4.767 0-7.206-2.766-7.206-6.737 0-6.252 6.253-7.065 11.27-8.347 1.767-.437 3.298-.906 3.298-2.579 0-1.954-2.11-2.485-4.298-2.485a13.882 13.882 0 00-8.738 3.126v-5.252a15.538 15.538 0 019.207-2.97c5.971 0 9.644 2.97 9.644 7.925v16.913zm-5.861-11.364c-.938.378-1.899.696-2.877.954-3.532.953-5.861 1.47-5.861 3.86 0 1.392.797 2.205 2.907 2.205a5.39 5.39 0 005.831-5.346v-1.673zm35.279-3.438v14.802h-5.877V20.487c0-3.127-2.376-5.002-5.534-5.002a6.253 6.253 0 00-5.205 2.422v16.835h-5.877V10.39h5.596v2.282a9.372 9.372 0 017.018-2.72c5.487-.047 9.879 3.345 9.879 9.988zm18.617 2.422l11.598 12.38h-7.628l-9.801-10.613v10.613h-5.861V.792h5.861v19.694l9.379-10.16h7.644l-11.192 12.036z"/></g><defs><clipPath id="clip0"><path fill="#fff" transform="translate(0 .166)" d="M0 0h200v67.995H0z"/></clipPath></defs></svg>
